X:1
T:Title
%%score ( 1 2 ) ( 3 4 )
L:1/8
Q:1/4=90
M:4/4
K:Bb
V:1 treble nm="Midi_20"
V:2 treble 
V:3 bass nm="Midi_20"
V:4 bass 
V:1
"^Hereford (C.M.)""^F. A. Gore Ouseley\n(1825-89)" G2 | G2 ^F2 G2 A2 | B2 c2 d2 || d2 | %4
 c2 B2 A2 G2 | ^F6 || A2 | B2 d2 c2 A2 | B2 G2 A2 || B2 | d2 G2 A2 B2 | G6 |] %12
V:2
 D2 | D2 D2 D2 =F2 | G2 A2 B2 || F2 | F2 F2 F2 D2 | D6 || ^F2 | G2 G2 C2 C2 | D2 C2 F2 || F2 | %10
 G2 G2 G2 ^F2 | G6 |] %12
V:3
 B,2 | B,2 A,2 B,2 C2 | E2 E2 D2 || B,2 | E2 D2 C2 B,2 | A,6 || D2 | D2 =E2 F2 C2 | G,2 G,2 C2 || %9
 D2 | B,2 C2 E2 DC | B,6 |] %12
V:4
 G,2 | G,2 D,2 G,2 =F,2 | E,D, C,2 B,,2 || B,,2 | C,2 D,2 F,2 G,2 | D,6 || D,2 | G,2 B,2 A,2 F,2 | %8
 F,2 =E,2 F,2 || B,,2 | G,,2 E,2 C,2 D,2 | G,6 |] %12

